!!!OTL: DORT AUF GEN LEIDLE
!!!ARE: Europa, Mitteleuropa, Deutschland, Franken, Hildburghausen
!!!SCT: E1034
!!!YEM: Copyright 1995, estate of Helmut Schaffrath.
**kern
*ICvox
*Ivox
*M3/8
*k[f#]
*G:
=1
{8g
8b
8dd
=2
8cc
8b
8a}
=3
{8g
8b
8dd
=4
16dd
8.a
8r}
=5
{8g
8b
8dd
=6
8cc
8b
8a}
=7
{8g
8b
8dd
=8
16dd
8.a
8r}
=9
{8.a
16b
8cc
=10
8.b
16a
8g}
=11
{8.a
16b
8cc
=12
8.b
16a
8g}
=13
{4b
8r
=14
4cc
8r}
=15
{8dd
8b
8a
=16
4g
8r}
==
!!!AGN: Tanz - Lied
!!!ONB: ESAC (Essen Associative Code) Database: ERK3
!!!AMT: simple triple
!!!AIN: vox
!!!EED: Helmut Schaffrath
!!!EEV: 1.0
*-
